apps/manager/public/logo-light.svg

<svg width="384" height="126" viewBox="0 0 384 126" fill="none" xmlns="http://www.w3.org/2000/svg">
<path fill-rule="evenodd" clip-rule="evenodd" d="M20.5676 23.9595C16.9404 23.9595 14 26.8999 14 30.527V98.3919C14 100.407 15.6336 102.041 17.6487 102.041H105.216C107.231 102.041 108.865 100.407 108.865 98.3919V30.527C108.865 26.8999 105.924 23.9595 102.297 23.9595H20.5676ZM92.4461 30.527C87.4084 30.527 83.3245 34.6109 83.3245 39.6487C83.3245 44.6864 87.4084 48.7703 92.4461 48.7703H93.1758C98.2136 48.7703 102.297 44.6864 102.297 39.6487C102.297 34.6109 98.2136 30.527 93.1758 30.527H92.4461Z" fill="#CCCCCC"/>
<mask id="mask0_1_12" style="mask-type:alpha" maskUnits="userSpaceOnUse" x="14" y="23" width="95" height="80">
<path fill-rule="evenodd" clip-rule="evenodd" d="M20.5676 23.9595C16.9404 23.9595 14 26.8999 14 30.527V98.3919C14 100.407 15.6336 102.041 17.6487 102.041H105.216C107.231 102.041 108.865 100.407 108.865 98.3919V30.527C108.865 26.8999 105.924 23.9595 102.297 23.9595H20.5676ZM92.4461 30.527C87.4084 30.527 83.3245 34.6109 83.3245 39.6487C83.3245 44.6864 87.4084 48.7703 92.4461 48.7703H93.1758C98.2136 48.7703 102.297 44.6864 102.297 39.6487C102.297 34.6109 98.2136 30.527 93.1758 30.527H92.4461Z" fill="white"/>
</mask>
<g mask="url(#mask0_1_12)">
<path d="M14.0002 60.4459C14.0002 58.4309 15.6337 56.7973 17.6488 56.7973H105.216C107.231 56.7973 108.865 58.4309 108.865 60.4459V98.3919C108.865 100.407 107.231 102.041 105.216 102.041H17.6488C15.6337 102.041 14.0002 100.407 14.0002 98.3919V60.4459Z" fill="#A3A3A3"/>
<path fill-rule="evenodd" clip-rule="evenodd" d="M17.6488 53.8784H105.216C108.844 53.8784 111.784 56.8188 111.784 60.4459V98.3919C111.784 102.019 108.844 104.959 105.216 104.959H17.6488C14.0217 104.959 11.0813 102.019 11.0813 98.3919V60.4459C11.0813 56.8188 14.0217 53.8784 17.6488 53.8784ZM17.6488 56.7973C15.6337 56.7973 14.0002 58.4309 14.0002 60.4459V98.3919C14.0002 100.407 15.6337 102.041 17.6488 102.041H105.216C107.231 102.041 108.865 100.407 108.865 98.3919V60.4459C108.865 58.4309 107.231 56.7973 105.216 56.7973H17.6488Z" fill="#CCCCCC"/>
<path d="M14.0002 75.7703C14.0002 73.7552 15.6337 72.1216 17.6488 72.1216H105.216C107.231 72.1216 108.865 73.7552 108.865 75.7703V98.3919C108.865 100.407 107.231 102.041 105.216 102.041H17.6488C15.6337 102.041 14.0002 100.407 14.0002 98.3919V75.7703Z" fill="#626262"/>
<path fill-rule="evenodd" clip-rule="evenodd" d="M17.6488 69.2027H105.216C108.844 69.2027 111.784 72.1431 111.784 75.7703V98.3919C111.784 102.019 108.844 104.959 105.216 104.959H17.6488C14.0217 104.959 11.0813 102.019 11.0813 98.3919V75.7703C11.0813 72.1431 14.0217 69.2027 17.6488 69.2027ZM17.6488 72.1216C15.6337 72.1216 14.0002 73.7552 14.0002 75.7703V98.3919C14.0002 100.407 15.6337 102.041 17.6488 102.041H105.216C107.231 102.041 108.865 100.407 108.865 98.3919V75.7703C108.865 73.7552 107.231 72.1216 105.216 72.1216H17.6488Z" fill="#CCCCCC"/>
<path d="M14.0002 91.0946C14.0002 89.0795 15.6337 87.4459 17.6488 87.4459H105.216C107.231 87.4459 108.865 89.0795 108.865 91.0946V98.3919C108.865 100.407 107.231 102.041 105.216 102.041H17.6488C15.6337 102.041 14.0002 100.407 14.0002 98.3919V91.0946Z" fill="#313131"/>
<path fill-rule="evenodd" clip-rule="evenodd" d="M17.6488 84.527H105.216C108.844 84.527 111.784 87.4674 111.784 91.0946V98.3919C111.784 102.019 108.844 104.959 105.216 104.959H17.6488C14.0217 104.959 11.0813 102.019 11.0813 98.3919V91.0946C11.0813 87.4674 14.0217 84.527 17.6488 84.527ZM17.6488 87.4459C15.6337 87.4459 14.0002 89.0795 14.0002 91.0946V98.3919C14.0002 100.407 15.6337 102.041 17.6488 102.041H105.216C107.231 102.041 108.865 100.407 108.865 98.3919V91.0946C108.865 89.0795 107.231 87.4459 105.216 87.4459H17.6488Z" fill="#CCCCCC"/>
</g>
<path d="M140.861 96V31.1777H166.736C179.898 31.1777 188.793 39.8477 188.793 52.8301V52.9199C188.793 65.8574 179.898 74.5723 166.736 74.5723H152.451V96H140.861ZM163.906 40.6562H152.451V65.2285H163.906C172.216 65.2285 177.068 60.7363 177.068 52.9648V52.875C177.068 45.1035 172.216 40.6562 163.906 40.6562ZM216.787 96.9883C202.052 96.9883 193.158 87.375 193.158 71.4727V71.3828C193.158 55.6152 202.187 45.957 216.787 45.957C231.431 45.957 240.416 55.5703 240.416 71.3828V71.4727C240.416 87.375 231.476 96.9883 216.787 96.9883ZM216.787 87.9141C224.558 87.9141 228.961 81.8496 228.961 71.5176V71.4277C228.961 61.0957 224.513 54.9863 216.787 54.9863C209.015 54.9863 204.568 61.0957 204.568 71.4277V71.5176C204.568 81.8496 209.015 87.9141 216.787 87.9141ZM248.15 96V46.9004H259.336V54.4473H260.099C261.762 49.1914 266.254 46.0918 272.722 46.0918C274.43 46.0918 276.181 46.3164 277.26 46.6309V56.6484C275.463 56.2891 273.621 56.0195 271.689 56.0195C264.232 56.0195 259.336 60.4668 259.336 67.4746V96H248.15ZM303.322 96.2246C292.047 96.2246 287.42 92.4512 287.42 82.9727V55.5703H279.783V46.9004H287.42V34.8613H298.785V46.9004H309.162V55.5703H298.785V80.3223C298.785 85.2188 300.717 87.2852 305.389 87.2852C306.961 87.2852 307.814 87.2402 309.162 87.1055V95.7305C307.545 96.0449 305.478 96.2246 303.322 96.2246ZM337.561 96.9883C322.826 96.9883 313.932 87.375 313.932 71.4727V71.3828C313.932 55.6152 322.961 45.957 337.561 45.957C352.205 45.957 361.189 55.5703 361.189 71.3828V71.4727C361.189 87.375 352.25 96.9883 337.561 96.9883ZM337.561 87.9141C345.332 87.9141 349.734 81.8496 349.734 71.5176V71.4277C349.734 61.0957 345.287 54.9863 337.561 54.9863C329.789 54.9863 325.342 61.0957 325.342 71.4277V71.5176C325.342 81.8496 329.789 87.9141 337.561 87.9141Z" fill="black"/>
</svg>

<svg xmlns="http://www.w3.org/2000/svg" width="384" height="126" fill="none">
  <path fill="#CCC" fill-rule="evenodd"
    d="M20.568 23.96A6.57 6.57 0 0 0 14 30.527v67.865a3.65 3.65 0 0 0 3.649 3.649h87.567a3.65 3.65 0 0 0 3.649-3.65V30.528a6.57 6.57 0 0 0-6.568-6.568zm71.878 6.567a9.122 9.122 0 0 0 0 18.243h.73a9.12 9.12 0 0 0 9.121-9.121 9.12 9.12 0 0 0-9.121-9.122z"
    clip-rule="evenodd" />
  <mask id="a" width="95" height="80" x="14" y="23" maskUnits="userSpaceOnUse" style="mask-type:alpha">
    <path fill="#fff" fill-rule="evenodd"
      d="M20.568 23.96A6.57 6.57 0 0 0 14 30.527v67.865a3.65 3.65 0 0 0 3.649 3.649h87.567a3.65 3.65 0 0 0 3.649-3.65V30.528a6.57 6.57 0 0 0-6.568-6.568zm71.878 6.567a9.122 9.122 0 0 0 0 18.243h.73a9.12 9.12 0 0 0 9.121-9.121 9.12 9.12 0 0 0-9.121-9.122z"
      clip-rule="evenodd" />
  </mask>
  <g mask="url(#a)">
    <path fill="#A3A3A3"
      d="M14 60.446a3.65 3.65 0 0 1 3.649-3.649h87.567a3.65 3.65 0 0 1 3.649 3.649v37.946a3.65 3.65 0 0 1-3.649 3.649H17.649A3.65 3.65 0 0 1 14 98.391z" />
    <path fill="#CCC" fill-rule="evenodd"
      d="M17.649 53.878h87.567a6.567 6.567 0 0 1 6.568 6.568v37.946a6.567 6.567 0 0 1-6.568 6.567H17.649a6.567 6.567 0 0 1-6.568-6.567V60.446a6.57 6.57 0 0 1 6.568-6.568m0 2.92A3.65 3.65 0 0 0 14 60.445v37.946a3.65 3.65 0 0 0 3.649 3.649h87.567a3.65 3.65 0 0 0 3.649-3.65V60.447a3.65 3.65 0 0 0-3.649-3.649z"
      clip-rule="evenodd" />
    <path fill="#626262"
      d="M14 75.77a3.65 3.65 0 0 1 3.649-3.648h87.567a3.65 3.65 0 0 1 3.649 3.648v22.622a3.65 3.65 0 0 1-3.649 3.649H17.649A3.65 3.65 0 0 1 14 98.391z" />
    <path fill="#CCC" fill-rule="evenodd"
      d="M17.649 69.203h87.567a6.567 6.567 0 0 1 6.568 6.567v22.622a6.567 6.567 0 0 1-6.568 6.567H17.649a6.567 6.567 0 0 1-6.568-6.567V75.77a6.57 6.57 0 0 1 6.568-6.567m0 2.919A3.65 3.65 0 0 0 14 75.77v22.622a3.65 3.65 0 0 0 3.649 3.649h87.567a3.65 3.65 0 0 0 3.649-3.65v-22.62a3.65 3.65 0 0 0-3.649-3.65z"
      clip-rule="evenodd" />
    <path fill="#313131"
      d="M14 91.095a3.65 3.65 0 0 1 3.649-3.65h87.567a3.65 3.65 0 0 1 3.649 3.65v7.297a3.65 3.65 0 0 1-3.649 3.649H17.649A3.65 3.65 0 0 1 14 98.391z" />
    <path fill="#CCC" fill-rule="evenodd"
      d="M17.649 84.527h87.567a6.567 6.567 0 0 1 6.568 6.568v7.297a6.567 6.567 0 0 1-6.568 6.567H17.649a6.567 6.567 0 0 1-6.568-6.567v-7.297a6.57 6.57 0 0 1 6.568-6.568m0 2.919A3.65 3.65 0 0 0 14 91.095v7.297a3.65 3.65 0 0 0 3.649 3.649h87.567a3.65 3.65 0 0 0 3.649-3.65v-7.296a3.65 3.65 0 0 0-3.649-3.65z"
      clip-rule="evenodd" />
  </g>
  <path fill="#000"
    d="M140.861 96V31.178h25.875c13.162 0 22.057 8.67 22.057 21.652v.09c0 12.937-8.895 21.652-22.057 21.652h-14.285V96zm23.045-55.344h-11.455v24.572h11.455c8.31 0 13.162-4.492 13.162-12.263v-.09c0-7.772-4.852-12.219-13.162-12.219m52.881 56.332c-14.735 0-23.629-9.613-23.629-25.515v-.09c0-15.768 9.029-25.426 23.629-25.426 14.644 0 23.629 9.613 23.629 25.426v.09c0 15.902-8.94 25.515-23.629 25.515m0-9.074c7.771 0 12.174-6.064 12.174-16.396v-.09c0-10.332-4.448-16.442-12.174-16.442-7.772 0-12.219 6.11-12.219 16.442v.09c0 10.332 4.447 16.396 12.219 16.396M248.15 96V46.9h11.186v7.547h.763c1.663-5.256 6.155-8.355 12.623-8.355 1.708 0 3.459.224 4.538.539v10.017c-1.797-.359-3.639-.629-5.571-.629-7.457 0-12.353 4.448-12.353 11.456V96zm55.172.225c-11.275 0-15.902-3.774-15.902-13.252V55.57h-7.637V46.9h7.637V34.861h11.365v12.04h10.377v8.67h-10.377v24.751c0 4.897 1.932 6.963 6.604 6.963 1.572 0 2.425-.045 3.773-.18v8.626c-1.617.314-3.684.494-5.84.494m34.239.763c-14.735 0-23.629-9.613-23.629-25.515v-.09c0-15.768 9.029-25.426 23.629-25.426 14.644 0 23.628 9.613 23.628 25.426v.09c0 15.902-8.939 25.515-23.628 25.515m0-9.074c7.771 0 12.173-6.064 12.173-16.396v-.09c0-10.332-4.447-16.442-12.173-16.442-7.772 0-12.219 6.11-12.219 16.442v.09c0 10.332 4.447 16.396 12.219 16.396" />
</svg>
